X: 237
T:Cheticamp Jig
R:jig
C:Elmer C. Briand
M:6/8
L:1/8
K:A
a | .c'2 a .e2 c | A3 .A2 (E/D/) | CEA cea | g3 .ug2 uf |
.f2 d .B2 A | G3 .uG2 uE |1 GFE GFE | C3 .C2 :|2 GFE EFG | A3 A3 ||
|: .A,2 C .E2 A | c3 .c2 e | cAe cAc | B3 B2z |
.B,2 D .F2 B | d3 a3 | gfe dcB |1 c3 c2z :|2 A3 .A3 ||
